X:12
T: Édesanyám, hol van az édes tej
S: Mezőkölpény
M:1/4
L:1/4
K:F
A/A/d/d/ c/d/e/f/ | e<d c z|
e/c/d/d/ e/d/c/B/ | A<G F z |
c c d d | c/B/ A/G/ | A F G z |
C/C/F/F/ E/D/G/G/ | D<D D z |
W: Édesanyám hol van az az édes tej,
W: Amelyikkel katonának neveltél?
W: Adtad volna tejedet a lányodnak,
W: Ne neveltél volna fel katonának.
W: 
W: Édesanyám, mért szültél a világra?
W: Mért nem dobtál a zavaros tiszába?
W: Tisza vize vitt volna a Dunába,
W: Most a szívem a babámért nem fája.

